X:1
T:G Major Oliver Holden, 1800
T:Isaac Watts, 1709 (Hymn 134, Book 1) 88. 88. (L. M.)
T:Athens No copyright. Treble-Tenor-Bass from Plain Psalmody , 1800; Counter by B. C. Johnston, 2015.
%%score [ 1 2 3 4 ]
L:1/8
M:4/4
K:G
V:1 treble nm="Treble" snm="Tr."
V:2 treble nm="Counter" snm="C."
V:3 treble-8 nm="Tenor" snm="T."
V:4 bass nm="Bass" snm="B."
V:1
 B4 | A2 G2 c2 B2 | A4 G4 | F6 A2 | d2 c2 B2 A2 | G4 A4 | B6 B2 | c3 d c2 B2 | A4 ^c4 | d6 c2 | %10
w: 1.~Had|I the tongues of|Greeks and|Jews, And|no- bler speech than|an- gels|use, If|love be ab- sent,|I am|found, Like|
 B2 G2 e2 B2 | d4 c4 | B8 |] %13
w: tink- ling brass, an|emp- ty|sound.|
V:2
 G4 | A2 B2 c2 G2 | F4 E4 | D6 A2 | B2 A2 B2 A2 | G4 F4 | G6 G2 | A3 G A2 B2 | A4 A4 | A6 D2 | %10
w: 2.~Were|I in- spired to|preach and|tell All|that is done in|heav'n and|hell; Or|could my faith the|world re-|move, Still|
 G2 G2 E2 B2 | B4 A4 | B8 |] %13
w: I am no- thing|with- out|love.|
V:3
 d4 | c2 B2 A2 G2 | c4 B4 | A6 c2 | B2 A2 G2 c2 | B4 A4 | G6 G2 | A3 B A2 G2 | F4 E4 | D6 D2 | %10
w: 3.~Should|I dis- tri- bute|all my|store To|feed the bo- wels|of the|poor, Or|give my bo- dy|to the|flame, To|
 G2 B2 A2 d2 | B4 A4 | G8 |] %13
w: gain a mar- tyr's|glo- rious|name,|
V:4
 G,4 | D,2 B,,2 C,2 G,2 | F,4 G,4 | D,6 D,2 | B,,2 D,2 G,2 F,2 | G,4 D,4 | G,,6 G,,2 | %7
w: 4.~If|love to God and|love to|men Be|ab- sent, all my|hopes are|vain; Nor|
 D,3 D, D,2 G,2 | A,4 A,,4 | D,6 D,2 | B,,2 G,,2 C,2 B,,2 | D,4 D,4 | G,,8 |] %13
w: tongues, nor gifts, nor|fie- ry|zeal The|work of love can|e'er ful-|fill.|

